X: 1
T: Doudlebsk\'a Polka
O: Czech
Z: John Chambers <jc@trillian.mit.edu> http://trillian.mit.edu/~jc/music/
R: polka
M: 2/4
L: 1/8
P: Bb
K: Bb
|: "Bb"[fd][fd] [d2B] | [ge][ge] [f2d] | [fd][fd] [ec][dB] | "F7"[e4c] \
 | [af][af] [g2e] | [af][af] [g2e] |1 [fd][bg] [af][ge] | "Bb"[f4d] \
:|2  ff [g_f][ae] | "Bb"[bd]"F7"[ae] "Bb"[b2d] |]
|: "Bb"d2 f2 | b2 fd | "F7"e2 f2 | [a4fe] \
 | e2 f2 |1 a2 gf | "Bb"d2 f2 | [bb]a gf \
:|2 a2 ga | "Bb".[bfd] "F7".[afe] | "Bb"[b4fd] |]
|: "Bb"dd/d/ df | bb fd | "F7"ee/e/ ef | [afe][afe] [a2fe] \
 | ee/e/ ef |1 aa gf | "Bb"dd/d/ df | ba gf \
:|2 aa ga | "Bb"[bd][bd] "F7"[afe][afe] | "Bb"[b4fd] |]
P: F
K: F
|: "F"[cA][cA] [A2F] | [dB][dB] [c2A] | [cA][cA] [BG][AF] | "C7"[B4G] \
 | [ec][ec] [d2B] | [ec][ec] [d2B] |1 [cA][fd] [ec][dB] | "F"[c4A] \
:|2  cc [d_c][eB] | "F"[fA]"C7"[eB] "F"[f2A] |]
|: "F"A2 c2 | f2 cA | "C7"B2 c2 | [e4cB] \
 | B2 c2 |1 e2 dc | "F"A2 c2 | [ff]e dc \
:|2 e2 de | "F".[fcA] "C7".[ecB] | "F"[f4cA] |]
|: "F"AA/A/ Ac | ff cA | "C7"BB/B/ Bc | [ecB][ecB] [e2cB] \
 | BB/B/ Bc |1 ee dc | "F"AA/A/ Ac | fe dc \
:|2 ee de | "F"[fA][fA] "C7"[ecB][ecB] | "F"[f4cA] |]
P: C
K: C
|: "C"[GE][GE] [E2C] | [AF][AF] [G2E] | [GE][GE] [FD][EC] | "G7"[F4D] \
 | [BG][BG] [A2F] | [BG][BG] [A2F] |1 [GE][cA] [BG][AF] | "C"[G4E] \
:|2  GG [A_G][BF] | "C"[cE]"G7"[BF] "C"[c2E] |]
|: "C"E2 G2 | c2 GE | "G7"F2 G2 | [B4GF] \
 | F2 G2 |1 B2 AG | "C"E2 G2 | [cc]B AG \
:|2 B2 AB | "C".[cGE] "G7".[BGF] | "C"[c4GE] |]
|: "C"EE/E/ EG | cc GE | "G7"FF/F/ FG | [BGF][BGF] [B2GF] \
 | FF/F/ FG |1 BB AG | "C"EE/E/ EG | cB AG \
:|2 BB AB | "C"[cE][cE] "G7"[BGF][BGF] | "C"[c4GE] |]
P: G
K: G
|: "G"[dB][dB] [B2G] | [ec][ec] [d2B] | [dB][dB] [cA][BG] | "D7"[c4A] \
 | [fd][fd] [e2c] | [fd][fd] [e2c] |1 [dB][ge] [fd][ec] | "G"[d4B] \
:|2  dd [e_d][fc] | "G"[gB]"D7"[fc] "G"[g2B] |]
|: "G"B2 d2 | g2 dB | "D7"c2 d2 | [f4dc] \
 | c2 d2 |1 f2 ed | "G"B2 d2 | [gg]f ed \
:|2 f2 ef | "G".[gdB] "D7".[fdc] | "G"[g4dB] |]
|: "G"BB/B/ Bd | gg dB | "D7"cc/c/ cd | [fdc][fdc] [f2dc] \
 | cc/c/ cd |1 ff ed | "G"BB/B/ Bd | gf ed \
:|2 ff ef | "G"[gB][gB] "D7"[fdc][fdc] | "G"[g4dB] |]
